qml/icons/navigation/fork-slight-left-black.svg

<svg id="WORKING_ICONS" data-name="WORKING ICONS" xmlns="http://www.w3.org/2000/svg" width="20" height="20" viewBox="0 0 20 20">
  <title>direction</title>
  <path fill="#000000" d="M15.75607,6.57682a0.30471,0.30471,0,0,1,.23035.10507l0.649,0.74859a0.30457,0.30457,0,0,1-.03369.43226L14.54129,9.60119a5.4089,5.4089,0,0,0-1.73306,4.29459l0.0047,3.60769a0.29613,0.29613,0,0,1-.29614.29654H11.51031a0.29657,0.29657,0,0,1-.29623-0.29622L11.2135,14.02754a6.99129,6.99129,0,0,1,2.26944-5.62616l2.077-1.75275a0.30461,0.30461,0,0,1,.19617-0.07182m0-.2a0.50263,0.50263,0,0,0-.32516.119l-2.077,1.75275A7.25157,7.25157,0,0,0,11.0141,14.043v3.46082A0.49622,0.49622,0,0,0,11.51031,18h1.00647a0.49616,0.49616,0,0,0,.49615-0.49681l-0.0047-3.60767a5.2182,5.2182,0,0,1,1.665-4.14405L16.73065,8.0156a0.50458,0.50458,0,0,0,.05585-0.71613l-0.649-.74859a0.50345,0.50345,0,0,0-.38147-0.17406h0Zm-5.11,1.87171L8.18859,6.17468a0.3576,0.3576,0,0,1,.07019-0.6571L11.2077,4.16742a0.38658,0.38658,0,0,0-.20294-0.71777L3,3l1.58044,7.86a0.38663,0.38663,0,0,0,.73938.09912L6.238,7.84851a0.35758,0.35758,0,0,1,.6405-0.16266L9.32672,9.75146a5.21819,5.21819,0,0,1,1.665,4.144l-0.0047,3.60767A0.49614,0.49614,0,0,0,11.48321,18h1.00653a0.49621,0.49621,0,0,0,.49615-0.49622V14.043A7.25158,7.25158,0,0,0,10.64605,8.24854Z"/>
</svg>

<svg data-name="WORKING ICONS" xmlns="http://www.w3.org/2000/svg" width="20" height="20"><path d="M15.756 6.577a.305.305 0 0 1 .23.105l.65.748a.305.305 0 0 1-.034.433L14.542 9.6a5.409 5.409 0 0 0-1.734 4.295l.005 3.607a.296.296 0 0 1-.296.297H11.51a.297.297 0 0 1-.296-.296v-3.476A6.991 6.991 0 0 1 13.482 8.4l2.078-1.75a.305.305 0 0 1 .196-.072m0-.2a.503.503 0 0 0-.325.119L13.354 8.25a7.252 7.252 0 0 0-2.34 5.794v3.46a.496.496 0 0 0 .496.497h1.007a.496.496 0 0 0 .496-.497l-.005-3.607a5.218 5.218 0 0 1 1.665-4.145l2.058-1.735a.505.505 0 0 0 .055-.717l-.649-.748a.503.503 0 0 0-.381-.174Zm-5.11 1.872L8.19 6.175a.358.358 0 0 1 .07-.657l2.949-1.35a.387.387 0 0 0-.203-.718L3 3l1.58 7.86a.387.387 0 0 0 .74.1l.918-3.111a.358.358 0 0 1 .64-.163l2.45 2.064a5.218 5.218 0 0 1 1.665 4.144l-.005 3.608a.496.496 0 0 0 .496.497h1.007a.496.496 0 0 0 .496-.496v-3.461a7.252 7.252 0 0 0-2.34-5.794Z"/></svg>
